www/assets/images/test_icons/flags/CV.svg

<svg fill="none" height="15" viewBox="0 0 21 15" width="21" xmlns="http://www.w3.org/2000/svg" xmlns:xlink="http://www.w3.org/1999/xlink"><mask id="a" height="15" maskUnits="userSpaceOnUse" width="21" x="0" y="0"><path d="m19 0h-17c-1.10457 0-2 .89543-2 2v11c0 1.1046.89543 2 2 2h17c1.1046 0 2-.8954 2-2v-11c0-1.10457-.8954-2-2-2z" fill="#fff"/></mask><g mask="url(#a)"><path d="m19 0h-17c-1.10457 0-2 .89543-2 2v11c0 1.1046.89543 2 2 2h17c1.1046 0 2-.8954 2-2v-11c0-1.10457-.8954-2-2-2z" fill="#003495"/><g clip-rule="evenodd" fill-rule="evenodd"><path d="m0 8h21v1h-21z" fill="#fff"/><path d="m0 9h21v1h-21z" fill="#d11c1f"/><path d="m0 10h21v1h-21z" fill="#fff"/><path d="m5 7h1v1h-1zm2-1h1v1h-1zm2 1h1v1h-1zm1 2h1v1h-1zm-6 0h1v1h-1zm5 2h1v1h-1zm-2 1h1v1h-1zm-2-1h1v1h-1z" fill="#f8d300"/></g><path d="m19 .5h-17c-.82843 0-1.5.67157-1.5 1.5v11c0 .8284.67157 1.5 1.5 1.5h17c.8284 0 1.5-.6716 1.5-1.5v-11c0-.82843-.6716-1.5-1.5-1.5z" stroke="#000" stroke-opacity=".1"/></g></svg>

<svg width="21" height="15" viewBox="0 0 21 15" fill="none" xmlns="http://www.w3.org/2000/svg">
<mask id="mask0_3_171" style="mask-type:alpha" maskUnits="userSpaceOnUse" x="0" y="0" width="21" height="15">
<path d="M19 0H2C0.89543 0 0 0.89543 0 2V13C0 14.1046 0.89543 15 2 15H19C20.1046 15 21 14.1046 21 13V2C21 0.89543 20.1046 0 19 0Z" fill="white"/>
</mask>
<g mask="url(#mask0_3_171)">
<path d="M19 0H2C0.89543 0 0 0.89543 0 2V13C0 14.1046 0.89543 15 2 15H19C20.1046 15 21 14.1046 21 13V2C21 0.89543 20.1046 0 19 0Z" fill="#003495"/>
<path fill-rule="evenodd" clip-rule="evenodd" d="M0 8H21V9H0V8Z" fill="white"/>
<path fill-rule="evenodd" clip-rule="evenodd" d="M0 9H21V10H0V9Z" fill="#D11C1F"/>
<path fill-rule="evenodd" clip-rule="evenodd" d="M0 10H21V11H0V10Z" fill="white"/>
<path fill-rule="evenodd" clip-rule="evenodd" d="M5 7H6V8H5V7ZM7 6H8V7H7V6ZM9 7H10V8H9V7ZM10 9H11V10H10V9ZM4 9H5V10H4V9ZM9 11H10V12H9V11ZM7 12H8V13H7V12ZM5 11H6V12H5V11Z" fill="#F8D300"/>
<path d="M19 0.5H2C1.17157 0.5 0.5 1.17157 0.5 2V13C0.5 13.8284 1.17157 14.5 2 14.5H19C19.8284 14.5 20.5 13.8284 20.5 13V2C20.5 1.17157 19.8284 0.5 19 0.5Z" stroke="black" stroke-opacity="0.1"/>
</g>
</svg>
